!!!COM: Mozart, Wolfgang Amadeus
!!!OPR: Quartet in G Major
!!!OTL:
!!!OMV: 1
!!!SCT: K 387
!!!SCA: Chronologisch-thematisches Verzeichnis sämtlicher Tonwerke Wolfgang Amade Mozarts (L. von Köchel; 1862, 2/1905, 3/1937, 1947)
!!!YOR: Breitkopf & Härtel Edition
!!!EED: Frances Bennion
!!!ENC: Frances Bennion
!!!CDT: 1756/1/27/-1791/12/5/
!!!OCY: Österreich
!!!YEC: Copyright (c) 1994, 2000 Center for Computer Assisted Research in the Humanities
!!!YEM: Rights to all derivative editions reserved.
!!!YEM: Refer to licensing agreement for further details.
!!!YEN: United States of America
**kern	**kern	**kern	**kern
*k[f#]	*k[f#]	*k[f#]	*k[f#]
*G:	*G:	*G:	*G:
*clefG	*clefG	*clefF	*clefC
*M4/4	*M4/4	*M4/4	*M4/4
*tb32	*tb32	*tb32	*tb32
=0-	=0-	=0-	=0-
2..r	2..r	2..r	2..r
8g	8r	8r	8r
=1	=1	=1	=1
4dd	4b	4g	4G
4gg	4g	4d	4B
4gg	4.cc	4.c	4.A
8ff#	.	.	.
8ee	8b	8e	8G
=2	=2	=2	=2
8dd	4a	4A	4F#
8dd#	.	.	.
8ee	[4b	4.e	4G#
8b	.	.	.
4dd	4b]	.	[4A
.	.	8g#	.
8cc	8a	8a	8A]
8r	8r	8r	8r
=3	=3	=3	=3
8.cc	2e	4A	4AA
32dd	.	.	.
32ee	.	.	.
16dd	.	8E	4C
16cc	.	.	.
16b	.	8c	.
16a	.	.	.
4g	4.d	4B	4.D
8f#	.	8A	.
8e	8c#	8G	8E
=4	=4	=4	=4
8d	[2d	2A	2F#
8dd	.	.	.
8cc#	.	.	.
8cc	.	.	.
4a#	8d]	4c	[4G
.	8f#	.	.
8b	8g	8B	8G]
8r	8r	8r	8r
=5	=5	=5	=5
2r	1r	4a	2r
.	.	8cc	.
.	.	16b	.
.	.	16a	.
[4d 4A	.	4f#	4C
8d 8B]	.	8g	8BB
8r	.	8r	8r
=6	=6	=6	=6
1r	4a	2r	2r
.	8cc	.	.
.	16b	.	.
.	16a	.	.
.	4ff#	[4a 4d	4c
.	8gg	8b 8d]	8B
.	8r	8r	8r
=7	=7	=7	=7
4aa	2r	2r	2r
8ccc	.	.	.
16bb	.	.	.
16aa	.	.	.
4ddd#	[2g	2A	2C#
4eee	.	.	.
=8	=8	=8	=8
4.gg	4g]	4B	4D
.	4f#	4c	4D#
16bb	.	.	.
16aa	.	.	.
4gg	4g	4B	4E
4r	4r	4r	4r
=9	=9	=9	=9
16g#	2r	2r	2r
16a	.	.	.
16cc	.	.	.
16b	.	.	.
16dd	.	.	.
16cc	.	.	.
16b	.	.	.
16a	.	.	.
8dd#	2g	2B-	2C#
8ee	.	.	.
8ff#	.	.	.
8gg	.	.	.
=10	=10	=10	=10
4.g	4d	4B	4D
.	4c	4F#	4DD
16b	.	.	.
16a	.	.	.
4g	4B	4G	4GG
4r	8r	4r	4r
.	8G	.	.
=11	=11	=11	=11
2..r	4d	4B	4GG
.	4g	4d	4BB
.	4g	4.c	4.AA
.	8f#	.	.
8g	8e	8B	8GG
=12	=12	=12	=12
4dd	8d	4A	4FF#
.	8d#	.	.
4gg	8e	4B	8GG
.	8B	.	8G
4gg	4d	4r	4B
8ff#	8c	[4d	8A
8ee	8B	.	8G
=13	=13	=13	=13
8dd	4A	8d]	4F#
8dd#	.	8a	.
8ee	4.r	8b	4G#
8b	.	8g#	.
4dd	.	4e	2A
.	8g#	.	.
8cc#	8a	[4A	.
8r	8e	.	.
=14	=14	=14	=14
8r	4g	4A]	2D
8cc	.	.	.
8dd	8f#	2d	.
8a	4r	.	.
4a#	.	.	2G
.	8f#	.	.
8b	8g	[4B	.
8r	8d#	.	.
=15	=15	=15	=15
8r	8f#	8B]	8r
8gg	8e	8b	8E
8ff#	8r	8a	8F#
8ee	8b	8g	8G
4dd	4.a	4f#	8A
.	.	.	8AA
8cc#	.	8e	8A
8b	8g#	8d	8B
=16	=16	=16	=16
8a	4a	4e	4c#
8aa	.	.	.
8gg#	4r	4r	4r
8gg	.	.	.
8ff#	4a	4f#	4d
8ddd	.	.	.
8ccc#	4r	4r	4r
8ccc	.	.	.
=17	=17	=17	=17
[1bb	8r	2r	1r
.	8B	.	.
.	8c	.	.
.	8c#	.	.
.	8d	8r	.
.	8d#	8B	.
.	8e	8c	.
.	8e#	8c#	.
=18	=18	=18	=18
1bb_	8f#	8d	8r
.	8b	8d#	8BB
.	8a	4e	8C
.	8g	.	8C#
.	8f#	8d	8D
.	8cc	8a	8D#
.	8b	8g	8E
.	8a	8f#	8F#
=19	=19	=19	=19
8bb]	4g	4e	4G
8bb	.	.	.
8aa#	4.r	2.r	2.r
8aa	.	.	.
8gg#	.	.	.
8gg	8b	.	.
8ff#	8a	.	.
8ee	8g	.	.
=20	=20	=20	=20
8dd#	8f#	8r	8r
8ee	8g	8B	8G
8ff#	8a	8A	8F#
8gg	8b	8G	8E
4dd	4f#	4A	8AA
.	.	.	8A
8cc#	8e	8r	[4B-
8r	8G	8E	.
=21	=21	=21	=21
8r	2g	2e	4B-]
16gg	.	.	.
16ff#	.	.	.
16aa	.	.	4.r
16gg	.	.	.
16ff	.	.	.
16ee	.	.	.
4dd	4.r	4.r	.
.	.	.	8A
8cc#	.	.	[4B-
8r	8G	8E	.
=22	=22	=22	=22
8r	[2g	[2e	4B-]
16gg	.	.	.
16ff#	.	.	.
16aa	.	.	4.r
16gg	.	.	.
16ff	.	.	.
16ee	.	.	.
16dd	8g]	8e]	.
16cc#	.	.	.
16gg	4e	4c#	8B-
16ff#	.	.	.
16aa	.	.	[4A
16gg	.	.	.
16ff	8f	8d	.
16ee	.	.	.
=23	=23	=23	=23
16dd	8g	8e	8A]
16cc#	.	.	.
16gg	4e	4c#	8B-
16ff#	.	.	.
16aa	.	.	4.A
16gg	.	.	.
16ff	8f	8d	.
16ee	.	.	.
[2dd	[2g	[2e	.
.	.	.	8AA
.	.	.	8A
.	.	.	8A
=24	=24	=24	=24
4dd]	4g_	4e_	4A
16cc#	16g]	16e]	2.r
16dd	16f#	16d	.
16ee	16e	16c#	.
16ff#	16d	16B	.
4gg	4c#	4A	.
4r	8r	4r	.
.	8A	.	.
=25	=25	=25	=25
1r	4f#	4A	4D
.	4f#	4A	4D
.	16f#	2A	2D
.	16e#	.	.
.	16f#	.	.
.	16e#	.	.
.	8f#	.	.
.	8f#	.	.
=26	=26	=26	=26
1r	4.a	8r	8r
.	.	8F#	8DD
.	.	8f#	4.D
.	8f#	8A	.
.	4.a	8r	.
.	.	8F#	8DD
.	.	8f#	4D
.	8f#	8A	.
=27	=27	=27	=27
1r	4e	4B	4GG
.	4e	4B	4GG
.	16e	2B	2GG
.	16d#	.	.
.	16e	.	.
.	16d#	.	.
.	8e	.	.
.	8e	.	.
=28	=28	=28	=28
1r	4.g]	8r	8r
.	.	8E	8GG
.	.	8B	4.G
.	8e	8G	.
.	4.g	8r	.
.	.	8E	8GG
.	.	8e]	4G
.	8e	8c#	.
=29	=29	=29	=29
1r	4d	8r	2F#
.	.	4A	.
.	4d#	.	.
.	.	4A	.
.	4e	.	2C#
.	.	4A	.
.	4e#	.	.
.	.	[8A	.
=30	=30	=30	=30
2..r	4f#	8A]	4D
.	.	8d	.
.	16g	16e	4GG
.	16a	16f#	.
.	16b	16g	.
.	16g	16e	.
.	4f#	4d	16AA
.	.	.	16GG#
.	.	.	16AA
.	.	.	16GG#
.	8e	8c#	8AA
8a	8r	8r	8r
=31	=31	=31	=31
4ff#	4a	4d	8r
.	.	.	8D
4ff#	4a	4d	8r
.	.	.	8D
16ff#	2a	16d	8r
16ee#	.	16c#	.
16ff#	.	16d	8D
16ee#	.	16c#	.
8ff#	.	8d	8D
8ff#	.	8d	8r
=32	=32	=32	=32
4.aa	8r	4.f#	8r
.	8a	.	8DD
.	4.dd	.	4.D
8ff#	.	8d	.
4.aa	.	4.f#	.
.	8a	.	8DD
.	4dd	.	4D
8ff#	.	8d	.
=33	=33	=33	=33
4ee	4a	4c#	8r
.	.	.	8G
4ee	4a	4c#	8r
.	.	.	8G
16ee	2a	16c#	8r
16dd#	.	16B#	.
16ee	.	16c#	8G
16dd#	.	16B#	.
8ee	.	8c#	8G
8ee	.	8c#	8r
=34	=34	=34	=34
4.gg	8r	4.e	8r
.	8A	.	8GG
.	4.a	.	4.G
8ee	.	8c#	.
4.gg	.	4.e	.
.	8A	.	8GG
.	[4a	.	4G
8ee	.	8c#	.
=35	=35	=35	=35
4dd	4a]	4d	2F#
4dd#	4cc	4a	.
4ee	4b	4g	4G
4ff	4dd	4b	4G#
=36	=36	=36	=36
4ff#	4dd	[4a	2A
8gg	8ee	4a 4g_	.
16ff#	16dd	.	.
16ee	16cc#	.	.
16dd	4dd	4a 4f#]	4d
16ee	.	.	.
16ff#	.	.	.
16gg	.	.	.
16aa	4r	4r	4r
16bb	.	.	.
16ccc#	.	.	.
16ddd	.	.	.
=37	=37	=37	=37
4d	4d	2F#	4BB
4cc	4d#	.	4AA
4b	4e	4G	4GG
4bb	4f	[4d	4GG#
=38	=38	=38	=38
4a	4f#	4d]	2AA
4ccc#	8g	8e	.
.	16f#	8G	.
.	16e	.	.
8ddd	8d	8F#	8DD
8r	4.r	4.r	4.r
16ddd	.	.	.
16ccc#	.	.	.
16bb	.	.	.
16aa	.	.	.
=39	=39	=39	=39
16gg#	8a	8e	8c#
16aa	.	.	.
16gg#	8a	8e	8c#
16aa	.	.	.
16gg#	8a	8e	8c#
16aa	.	.	.
16bb	8r	8r	8r
16gg	.	.	.
16ee#	8a	8f#	8d
16ff#	.	.	.
16ee#	8a	8f#	8d
16ff#	.	.	.
16ee#	8a	8f#	8d
16ff#	.	.	.
16aa	8r	8r	8r
16ff#	.	.	.
=40	=40	=40	=40
16dd#	8r	8r	8G
16ee	.	.	.
16dd#	8b	8g	8r
16ee	.	.	.
16dd#	8r	8r	8E
16ee	.	.	.
16gg	8b	8g	8r
16ee	.	.	.
16dd	4e	4a	4A
16cc#	.	.	.
16b	.	.	.
16a	.	.	.
16ddd	16dd	4r	4r
16ccc#	16cc#	.	.
16bb	16b	.	.
16aa	16a	.	.
=41	=41	=41	=41
16gg#	16g#	8e 8A	8C#
16aa	16a	.	.
16gg#	16g#	8e 8A	8C#
16aa	16a	.	.
16gg#	16g#	8e 8A	8C#
16aa	16a	.	.
16bb	16b	8r	8r
16gg	16g	.	.
16ee#	16e#	8d 8A	8D
16ff#	16f#	.	.
16ee#	16e#	8d 8A	8D
16ff#	16f#	.	.
16ee#	16e#	8d 8A	8D
16ff#	16f#	.	.
16aa	16a	8r	8r
16ff#	16f#	.	.
=42	=42	=42	=42
16dd#	16d#	8r	8GG
16ee	16e	.	.
16gg	16g	8B 8G	8r
16ee	16e	.	.
16ee	16e	8r	8AA
16dd	16d	.	.
16dd	16d	8A 8G	8r
16cc#	16c#	.	.
2dd	2d	2A 2F#	16D
.	.	.	16E
.	.	.	16F#
.	.	.	16G
.	.	.	16A
.	.	.	16B
.	.	.	16c#
.	.	.	16d
=43	=43	=43	=43
2ff#	1dd	[2a 2d	16c
.	.	.	16B
.	.	.	16A
.	.	.	16G
.	.	.	16F#
.	.	.	16E
.	.	.	16D
.	.	.	16C
2gg	.	2b 2d]	16BB
.	.	.	16C
.	.	.	16D
.	.	.	16E
.	.	.	16F#
.	.	.	16G
.	.	.	16A
.	.	.	16B
=44	=44	=44	=44
8.ff#	8.dd	8a	8A
.	.	8a	8A
16aa	16ff#	.	.
8gg	8ee	8a	8A
16ff#	16dd	8g 8A	8A
16ee	16cc#	.	.
2dd	2dd	2f# 2A	16D
.	.	.	16E
.	.	.	16F#
.	.	.	16G
.	.	.	16A
.	.	.	16B
.	.	.	16c#
.	.	.	16d
=45	=45	=45	=45
2ff#	2a	[2d	16c
.	.	.	16B
.	.	.	16A
.	.	.	16G
.	.	.	16F#
.	.	.	16E
.	.	.	16D
.	.	.	16C
2gg	2b	16d]	16BB
.	.	16e	16C
.	.	16f#	16D
.	.	16g	16E
.	.	16a	16F#
.	.	16b	16G
.	.	16cc	16A
.	.	16dd	16B
=46	=46	=46	=46
2aa	2ff#	16cc	16A
.	.	16b	16G
.	.	16a	16F#
.	.	16g	16E
.	.	16f#	16D
.	.	16e	16C
.	.	16d	16BB
.	.	16c	16AA
2bb	2gg	16B	16GG
.	.	16c	16AA
.	.	16d	16BB
.	.	16e	16C
.	.	16f#	16D
.	.	16g	16E
.	.	16a	16F#
.	.	16b	16G
=47	=47	=47	=47
16cc#	16g	16e	2AA
16dd	16a	16f#	.
16ee	16b	16g	.
16ff#	16cc#	16a	.
16gg	16dd	16b	.
16aa	16ee	16cc#	.
16bb	16ff#	16dd	.
16ccc#	16gg	16ee	.
8ddd	8ff#	8dd	8BB
8r	8r	8r	8r
8bb	8gg	8dd	8G
8r	8r	8r	8r
=48	=48	=48	=48
8aa	8ff#	8dd	8A
8r	8r	8r	8r
8gg	8ee	8cc#	8A#
8r	8r	8r	8r
16gg	8dd	8b	8B
16ff#	.	.	.
8r	8r	8r	8r
16ff#	8b	8g	8G
16ee	.	.	.
8r	8r	8r	8r
=49	=49	=49	=49
16ee	8a	8f#	8A
16dd	.	.	.
8r	8r	8r	8r
16dd	8g	8e	8AA
16cc#	.	.	.
8r	8r	8r	8r
8dd	8f#	8d	8D
8r	8r	8r	8r
[4gg#	[4f	[4d	[4B
=50	=50	=50	=50
4gg#]	4f]	4d]	4B]
4.aa	4.f#	4.d	2A
16gg	8f#	8d	.
16ff#	.	.	.
8ee	8g	8e	4AA
16dd	8g	8e	.
16cc#	.	.	.
=51	=51	=51	=51
8dd	8f#	8d	8D
8r	8r	8r	8r
2gg#	2f	2d	2B
[4aa	[4f#	[4d	[4A
=52	=52	=52	=52
8aa]	8f#]	8d]	4A]
16gg	8f#	8d	.
16ff#	.	.	.
8ee	8g	8e	4AA
16dd	8g	8e	.
16cc#	.	.	.
8dd	8f#	8d	8D
8r	8r	8r	4.r
16ee	8g	8A	.
16gg	.	.	.
16ff#	8g	8A	.
16ee	.	.	.
=53	=53	=53	=53
8dd	8f#	8d	4r
8r	8r	8r	.
8ccc#	16ff#	8g	8A
.	16gg	.	.
8ccc#	16ff#	8g	8A
.	16ee	.	.
8ddd	8dd	8f#	8d
4.r	4.r	4.r	4.r
=54	=54	=54	=54
8.e	8.d	8.B	8.GG
16e	16d	16B	16GG
8.e	8.d	8.B	8.GG#
16e	16d	16B	16GG#
8.f#	8.d	8.A	8.AA
16f#	16d	16A	16AA
8.g	8.d	8.G	8.BB
16g	16d	16G	16BB
=55	=55	=55	=55
8f#	8d	8A	8AA
8r	8r	8r	8r
8.e	8.c#	8G	8AA
.	.	8r	8r
32d	32B	.	.
32e	32c#	.	.
4d	4d	4F#	4DD
8r	8r	8r	8r
8d	8r	8r	8r
=56	=56	=56	=56
4a	4d	4F#	4D
4dd	4a	4A	4F#
[2dd	[2g	[2e	[2E
=57	=57	=57	=57
16dd]	2g_	2.e]	2E_
16cc#	.	.	.
16ee	.	.	.
16dd	.	.	.
16ff#	.	.	.
16ee	.	.	.
16gg	.	.	.
16ff#	.	.	.
8aa	4g]	.	4E]
8gg	.	.	.
8ff#	4r	4r	4r
8ee	.	.	.
=58	=58	=58	=58
8dd	1r	1r	1r
8cc#	.	.	.
8b	.	.	.
8a	.	.	.
8g#	.	.	.
8a	.	.	.
8a#	.	.	.
16b	.	.	.
16g	.	.	.
=59	=59	=59	=59
[2g	4r	4r	4r
.	4c	4A	4D#
8g]	4c	4A	4D#
8f#	.	.	.
8cc	4f#	4A	4D#
8b	.	.	.
=60	=60	=60	=60
2b	2f#	2A	2D#
2r	4.r	2r	2r
.	8e	.	.
=61	=61	=61	=61
4b	4b	4g	4E
4a#	4ee	4g	4C
[2a#	[2ee	[2g	[2BB
=62	=62	=62	=62
2a#]	4ee]	2g]	1BB_
.	16dd#	.	.
.	16ee	.	.
.	16ff#	.	.
.	16ee	.	.
[2a	8dd#	[2f#	.
.	8ccc	.	.
.	8bb	.	.
.	8aa	.	.
=63	=63	=63	=63
4a]	8gg	4f#]	4BB]
.	8ff#	.	.
2.r	8ee	2.r	2.r
.	8dd#	.	.
.	8cc	.	.
.	8b	.	.
.	8cc	.	.
.	8a	.	.
=64	=64	=64	=64
4g# 4B	8r	4d	4E
.	8g#	.	.
2.r	8b	2.r	2.r
.	8dd	.	.
.	8ff	.	.
.	8ee	.	.
.	8bb	.	.
.	8dd	.	.
=65	=65	=65	=65
4g 4A	8r	4c#	4AA
.	8cc#	.	.
4r	8ee	4r	4r
.	8g	.	.
4f# 4A	8r	4c	4D
.	8f#	.	.
4r	8a	4r	4r
.	8c	.	.
=66	=66	=66	=66
4r	[2c	4r	4r
4d	.	4F	4GG
4d	8c]	4F	4GG
.	8B	.	.
4B	8g	4D	4GG
.	8f	.	.
=67	=67	=67	=67
2B	2f	2D	2GG
2r	2r	4.r	2r
.	.	8C	.
=68	=68	=68	=68
2r	2r	4G	4EE
.	.	4c	4CC
[2f 2G	[2d 2G	[2c	[2GG
=69	=69	=69	=69
8f]	8d]	16c]	2GG_
.	.	16B	.
8e	8c	16d	.
.	.	16c	.
8d	8B	16e	.
.	.	16d	.
8c	8A	16f	.
.	.	16e	.
8B	8G	8g	8GG]
4.r	4.r	8f	4.r
.	.	8e	.
.	.	8d	.
=70	=70	=70	=70
1r	1r	8c	1r
.	.	8B	.
.	.	2dd	.
.	.	16cc	.
.	.	16b	.
.	.	16a	.
.	.	16g	.
=71	=71	=71	=71
1r	1r	16f	1r
.	.	16g	.
.	.	16a	.
.	.	16g	.
.	.	16f	.
.	.	16e	.
.	.	16d	.
.	.	16c	.
.	.	16B	.
.	.	16c	.
.	.	16d	.
.	.	16c	.
.	.	16B	.
.	.	16A	.
.	.	16G	.
.	.	16F	.
=72	=72	=72	=72
8B-	4r	8G 8E	8CC
4B-	.	4G 4E	8C
.	2gg	.	8C
4B-	.	4G 4E	8C
.	.	.	8C
4B-	.	4G 4E	8C
.	16ff	.	8C
.	16ee	.	.
[8B-	16dd	[8G 8E	8C
.	16cc	.	.
=73	=73	=73	=73
8B-]	16b-	8G 8E]	8C
.	16cc	.	.
4B-	16dd	4G 4E	8C
.	16cc	.	.
.	16b-	.	8C
.	16a	.	.
4B-	16g	4G 4E	8C
.	16f	.	.
.	16e	.	8C
.	16f	.	.
4B-	16g	4G 4E	8C
.	16f	.	.
.	16e	.	8C
.	16d	.	.
8B-	16c	[8G 8E	8C
.	16B-	.	.
=74	=74	=74	=74
8A	8A	8G 8E]	8CC#
8r	4A	4G 4E	8C#
2eee	.	.	8C#
.	4A	4G 4E	8C#
.	.	.	8C#
.	4A	4G 4E	8C#
16ddd	.	.	8C#
16ccc#	.	.	.
16bb	[8A	[8G 8E	8C#
16aa	.	.	.
=75	=75	=75	=75
16gg	8A]	8G 8E]	8C#
16aa	.	.	.
16bb-	4A	4G 4E	8C#
16aa	.	.	.
16gg	.	.	8C#
16ff	.	.	.
16ee	4A	4G 4E	8C#
16dd	.	.	.
16cc#	.	.	8C#
16dd	.	.	.
16ee	4A	4G 4E	8C#
16dd	.	.	.
16cc#	.	.	8C#
16b-	.	.	.
16a	8A	8G 8E	8C#
16g	.	.	.
=76	=76	=76	=76
8f#	8A	8F#	8DD
4f# 4A	8r	4c 4D	8D
.	2aa	.	8D
4f# 4A	.	4c 4D	8D
.	.	.	8D
4f# 4A	.	4c 4D	8D
.	16gg	.	8D
.	16ff#	.	.
[8f# 8A	16ee	[8c 8D	8D
.	16dd	.	.
=77	=77	=77	=77
8f# 8A]	16cc	8c 8D]	8D
.	16dd	.	.
4f# 4A	16ee	4c 4D	8D
.	16dd	.	.
.	16cc	.	8D
.	16b	.	.
4f# 4A	16a	4c 4D	8D
.	16g	.	.
.	16f#	.	8D
.	16g	.	.
4f# 4A	16a	4c 4D	8D
.	16g	.	.
.	16f#	.	8D
.	16e	.	.
8f# 8A	16d	8c 8D	8D
.	16c	.	.
=78	=78	=78	=78
8f# 8A	8B	8B	8DD#
8r	4B	4A 4F#	8D#
2ff#	.	.	8D#
.	4B	4A 4F#	8D#
.	.	.	8D#
.	4B	4A 4F#	8D#
16ee	.	.	8D#
16dd#	.	.	.
16cc#	[8B	[8A 8F#	8D#
16b	.	.	.
=79	=79	=79	=79
16a	8B]	8A 8F#]	8D#
16b	.	.	.
16cc	4B	4A 4F#	8D#
16b	.	.	.
16a	.	.	8D#
16g	.	.	.
16f#	4B	4A 4F#	8D#
16e	.	.	.
16d#	.	.	8D#
16e	.	.	.
16f#	4B	4A 4F#	8D#
16e	.	.	.
16d#	.	.	8D#
16c	.	.	.
16B	8B	8A 8F#	8D#
16A	.	.	.
=80	=80	=80	=80
8G	8B	8G 8E	4E
4b	16g	4e	.
.	16a	.	.
.	8g	.	4r
8b	8g	8e	.
8r	8r	8r	4C
4ee	16a#	4g	.
.	16b	.	.
.	8a#	.	4r
8ee	8a#	8e	.
=81	=81	=81	=81
8r	8r	8r	4BB
4dd#	16b	4f#	.
.	16cc	.	.
.	8b	.	4r
8dd#	8b	8f#	.
8r	8r	8r	4D#
4aa	16b	4f#	.
.	16cc	.	.
.	8b	.	4r
8aa	8b	8f#	.
=82	=82	=82	=82
4gg#	8b	8e	8E
.	8b	8e	8E
4gg	8b	8e	8E
.	8b	8e	8E
4ff	8cc	8c	8A
.	8cc	8a	8A
8.ee	8b	8g	8B
.	8a	8f#	8B
16dd#	.	.	.
=83	=83	=83	=83
4ee	8g	8e	8c
.	8g	8e	8c
4cc	8a	8e	8A
.	8a	8e	8A
4b	8g	8e	8B
.	8g	8e	8B
4aa	8f#	8d#	8BB
.	8f#	8d#	8BB
=84	=84	=84	=84
4gg#	8e	8e	8E
.	8b	8e	8E
4gg	8b	8e	8E
.	8b	8e	8E
4ff	8cc	8c	8A
.	8cc	8a	8A
8.ee	8b	8g	8B
.	8a	8f#	8B
16dd#	.	.	.
=85	=85	=85	=85
4ee	8g	8e	8c
.	8g	8e	8c
4cc	8a	8e	8A
.	8a	8e	8A
4b	8g	8e	8B
.	8g	8e	8B
4d#	8f#	8A	8BB
.	8f#	8A	8BB
=86	=86	=86	=86
4e	8e	8G	8E
.	8r	8r	8r
2.r	16f#	8A	8BB
.	16a	.	.
.	16g	8A	8BB
.	16f#	.	.
.	8e	8G	8E
.	8r	8r	8r
.	8dd#	16f#	8B
.	.	16a	.
.	8dd#	16g	8B
.	.	16f#	.
=87	=87	=87	=87
4r	8ee	8e	8e
.	8r	8r	8r
16ff#	8a	8d#	8B
16aa	.	.	.
16gg	8a	8d#	8B
16ff#	.	.	.
8ee	8g	8e	8c
4.r	4.r	4.r	4.r
=88	=88	=88	=88
8.f#	8.e	8.c	8.AA
16f#	16e	16c	16AA
8.f#	8.e	8.c#	8.AA#
16f#	16e	16c#	16AA#
8.g	8.e	8.B	8.BB
16g	16e	16B	16BB
8.a	8.e	8.A	8.C
16a	16e	16A	16C
=89	=89	=89	=89
8g	8e	8B	8BB
8r	8r	8r	8r
8.f#	8.d#	8A	8BB
.	.	8r	8r
32e	32c#	.	.
32f#	32d#	.	.
4e	4e	4G	4EE
4r	4r	4r	4r
=90	=90	=90	=90
[2f	[1B	2..D	1GG]
8f]	.	.	.
16g	.	.	.
16a	.	.	.
16g	.	.	.
16f	.	.	.
16e	.	16E	.
16d	.	16F	.
=91	=91	=91	=91
8d	8B]	8F	8C
8c	8c	8E	4.r
4.cc	4r	4r	.
.	[2f#	4.A	2D
16dd	.	.	.
16ee	.	.	.
16dd	.	.	.
16cc	.	.	.
16b	.	16B	.
16a	.	16c	.
=92	=92	=92	=92
8a	8f#]	8c	8G
8g	8g	8B	4.r
4.gg	4r	4r	.
.	2cc#	4.e	2A
16aa	.	.	.
16bb	.	.	.
16aa	.	.	.
16gg	.	.	.
16ff#	.	16f#	.
16ee	.	16g	.
=93	=93	=93	=93
4dd	8dd	8f#	8B
.	8dd	8f#	8B
4dd#	8cc	8f#	8A
.	8cc	8f#	8A
4ee	8b	8g	8G
.	8b	8g	8G
4ff#	8a	8d#	8F#
.	8a	8d#	8F#
=94	=94	=94	=94
8aa	8g	8e	8E
8gg	8g	8e	8E
8.ff#	8b	8B	8G
.	8b	8g	8G
16ee	.	.	.
4dd	8a	8f#	8A
.	8a	8f#	8A
4cc#	8g	8e	8A#
.	8g	8e	8A#
=95	=95	=95	=95
4dd	8f#	8d	8B
.	8f#	8d	8B
4dd#	8f#	8c	8A
.	8f#	8c	8A
4ee	8e	8B	8G
.	8e	8B	8G
4ff#	8d#	8A	8F#
.	8d#	8A	8F#
=96	=96	=96	=96
8gg	8e	8G	8E
16aa	8e	8G	8E
16bb	.	.	.
16aa	8e	8B	8G
16gg	.	.	.
16ff#	8g	8B	8G
16ee	.	.	.
4dd	8f#	8A	8A
.	8f#	8A	8A
4cc#	8e	8G	8AA
.	8e	8G	8AA
=97	=97	=97	=97
8dd	8d	8F#	8D
8r	8r	8r	8r
16e	8c#	8G	8AA
16g	.	.	.
16f#	8c#	8G	8AA
16e	.	.	.
8d	8d	8F#	8D
8r	8r	8r	8r
8cc#	8g	16e	8A
.	.	16g	.
8cc#	8g	16f#	8A
.	.	16e	.
=98	=98	=98	=98
8dd	8f#	8d	8d
8r	8r	8r	8r
8ccc#	16ee	8g	8A
.	16gg	.	.
8ccc#	16ff#	8g	8A
.	16ee	.	.
8ddd	8dd	8f#	8B
4.r	4.r	4.r	4.r
=99	=99	=99	=99
8.e	8.d	8.B	8.GG
16e	16d	16B	16GG
8.e	8.d	8.B	8.GG#
16e	16d	16B	16GG#
8.f#	8.d	8.A	8.AA
16f#	16d	16A	16AA
8.g	8.d	8.G	8.BB
16g	16d	16G	16BB
=100	=100	=100	=100
8f#	8d	8A	8AA
8r	8r	8r	8r
8.e	8.c#	8G	8AA
.	.	8r	8r
32d	32B	.	.
32e	32c#	.	.
4d	4d	4F#	4DD
4r	4r	4r	4r
=101	=101	=101	=101
8a	8f#	2r	2r
8r	8r	.	.
8.g	8.e	.	.
32f#	32d	.	.
32g	32e	.	.
4f#	4d	8A	8F#
.	.	8r	8r
4r	4r	8.G	8.E
.	.	32F#	32D
.	.	32G	32E
=102	=102	=102	=102
8cc	8a	4F#	4D
8r	8r	.	.
8.b	8.g	4r	4r
32a	32f#	.	.
32b	32g	.	.
4a	4f#	8c	8A
.	.	8r	8r
4r	4r	8.B	8.G
.	.	32A	32F#
.	.	32B	32G
=103	=103	=103	=103
8ee	8cc	4A	4F#
8r	8r	.	.
8.dd	8.b	2r	2.r
32cc	32a	.	.
32dd	32b	.	.
4cc	4a	.	.
4aa	4f#	4d	.
=104	=104	=104	=104
[2gg	[2cc	[2a	16d
.	.	.	16c#
.	.	.	16d
.	.	.	16c#
.	.	.	16d
.	.	.	16c#
.	.	.	16d
.	.	.	16c#
8gg]	16cc]	16a]	[2d
.	16b	16g#	.
8ff#	16cc	16a	.
.	16b	16g#	.
8ccc	16cc	16a	.
.	16b	16g#	.
8aa	16cc	16a	.
.	16b	16g#	.
=105	=105	=105	=105
[2gg	[2cc	[2a	16d]
.	.	.	16c#
.	.	.	16d
.	.	.	16c#
.	.	.	16d
.	.	.	16c#
.	.	.	16d
.	.	.	16c#
8gg]	16cc]	16a]	[2d
.	16b	16g#	.
8ff#	16cc	16a	.
.	16b	16g#	.
8ccc	16cc	16a	.
.	16b	16g#	.
8aa	16cc	16a	.
.	16b	16g#	.
=106	=106	=106	=106
8gg	4cc	4a	1d]
4ff#	.	.	.
.	4b	4g	.
4ee	.	.	.
.	4a	4f#	.
4dd	.	.	.
.	4g	4e	.
[8cc	.	.	.
=107	=107	=107	=107
8cc]	4f#	4d	1D
4b	.	.	.
.	4e	4c	.
4a	.	.	.
.	4d	4B	.
4g	.	.	.
.	4c	4A	.
8f#	.	.	.
=108	=108	=108	=108
4dd	4B	4G	4GG
4gg	4dd	4d	4B
4gg	4.cc	4.a	4.A
8ff#	.	.	.
8ee	8b	8g	8G
=109	=109	=109	=109
8dd	4a	4f#	4F#
8dd#	.	.	.
8ee	4b	2e	4G#
8b	.	.	.
8dd	8g#	.	[4A
8cc#	8a	.	.
8cc	8e	8A	8A]
8r	8r	8r	8r
=110	=110	=110	=110
8.cc	2e	4A	4AA
32dd	.	.	.
32ee	.	.	.
16dd	.	8E	4C
16cc	.	.	.
16b	.	8c	.
16a	.	.	.
4g	4.d	4B	4.D
8f#	.	8A	.
8e	8c#	8G	8E
=111	=111	=111	=111
8d	4d	4A	2F#
8ee	.	.	.
8dd	4.a	[2d	.
8cc#	.	.	.
8cc	.	.	[4G
8a#	8f#	.	.
8b	8g	8d]	8G]
8r	8r	8r	8r
=112	=112	=112	=112
2r	1r	4a	2r
.	.	8cc	.
.	.	16b	.
.	.	16a	.
[4d 4A	.	4f#	4C
8d 8B]	.	8g	8BB
8r	.	8r	8r
=113	=113	=113	=113
1r	4a	2r	2r
.	8cc	.	.
.	16b	.	.
.	16a	.	.
.	4ff#	[4a 4d	4c
.	8gg	8b 8d]	8B
.	8r	8r	8r
=114	=114	=114	=114
4aa	2r	2r	2r
8ccc	.	.	.
16bb	.	.	.
16aa	.	.	.
4ddd#	[2g	2A	2C#
4eee	.	.	.
=115	=115	=115	=115
4.gg	4g]	4B	4D
.	4f#	4c	4D#
16bb	.	.	.
16aa	.	.	.
4gg	4g	4B	4E
4r	4r	4r	4r
=116	=116	=116	=116
4.ee	2b	2g#	2d
16gg	.	.	.
16ff	.	.	.
8ee	8cc	8a	8c
4.r	4.r	4.r	4.r
=117	=117	=117	=117
16g#	2r	2r	2r
16a	.	.	.
16cc	.	.	.
16b	.	.	.
16dd	.	.	.
16cc	.	.	.
16b	.	.	.
16a	.	.	.
8dd#	2g	2B-	2C#
8ee	.	.	.
8ff#	.	.	.
8gg	.	.	.
=118	=118	=118	=118
4.g	4d	4B	4D
.	4c	4F#	4DD
16b	.	.	.
16a	.	.	.
4g	4B	4G	4GG
4r	8r	4r	4r
.	8G	.	.
=119	=119	=119	=119
2..r	4d	4B	4GG
.	4g	4d	4BB
.	4g	4.c	4.AA
.	8f#	.	.
8g	8e	8B	8GG
=120	=120	=120	=120
4dd	8d	4A	4FF#
.	8d#	.	.
4gg	8e	4B	8GG
.	8B	.	8G
4gg	4d	4r	4B
8ff#	8c	[4d	8A
8ee	8B	.	8G
=121	=121	=121	=121
8dd	4A	8d]	4F#
8dd#	.	8a	.
8ee	4.r	8b	4G#
8b	.	8g#	.
4dd	.	4e	2A
.	8g#	.	.
8cc#	8a	[4A	.
8r	8e	.	.
=122	=122	=122	=122
8r	4g	4A]	2D
8cc	.	.	.
8dd	8f#	2d	.
8a	4r	.	.
4a#	.	.	2G
.	8f#	.	.
8b	8g	8G	.
8r	8d#	[8b	.
=123	=123	=123	=123
8r	8e	8b]	8C
8aa	8ee	8a	8c
8bb	8dd	8g#	8B
8ccc	8cc	8a	8A
4gg	4b	4.d	8r
.	.	.	8d
8ff#	8a	.	8D
[8ee	8c#	8G	8E
=124	=124	=124	=124
8ee]	4d	4A	4F#
8dd	.	.	.
8cc#	4r	4r	4r
8cc	.	.	.
8b	4d	4B	4G
8gg	.	.	.
8ff#	4r	4r	4r
8ff	.	.	.
=125	=125	=125	=125
[1ee	8r	2r	1r
.	8e	.	.
.	8f	.	.
.	8f#	.	.
.	8g	8r	.
.	8g#	8e	.
.	8a	8f	.
.	8a#	8f#	.
=126	=126	=126	=126
4ee]	8b	8g	8r
.	8ee	8g#	8E
[2.eee	8dd	4a	8F
.	8cc	.	8F#
.	8b	8g	8G
.	8ff	8dd	8G#
.	8ee	8cc	8A
.	8dd	8b	8B
=127	=127	=127	=127
8eee]	4cc	4a	4c
8eee	.	.	.
8ddd#	4.r	2.r	2.r
8ddd	.	.	.
8ccc#	.	.	.
8ccc	8ee	.	.
8bb	8dd	.	.
8aa	8cc	.	.
=128	=128	=128	=128
8gg#	8b	8r	8r
8aa	8cc	8e	8c
8bb	8dd	8d	8B
8ccc	8ee	8c	8A
4gg	4b	4d	8D
.	.	.	8d
8ff#	8a	8r	[4e-
8r	8c	8A	.
=129	=129	=129	=129
8r	2cc	2a	4e-]
16ccc	.	.	.
16bb	.	.	.
16ddd	.	.	4.r
16ccc	.	.	.
16bb-	.	.	.
16aa	.	.	.
4gg	4.r	4.r	.
.	.	.	8d
8ff#	.	.	[4e-
8r	8c	8A	.
=130	=130	=130	=130
8r	[2cc	[2a	4e-]
16ccc	.	.	.
16bb	.	.	.
16ddd	.	.	4.r
16ccc	.	.	.
16bb-	.	.	.
16aa	.	.	.
16gg	8cc]	8a]	.
16ff#	.	.	.
16ccc	4a	4f#	8e-
16bb	.	.	.
16ddd	.	.	[4d
16ccc	.	.	.
16bb-	8b-	8g	.
16aa	.	.	.
=131	=131	=131	=131
16gg	8cc	8a	8d]
16ff#	.	.	.
16ccc	4a	4f#	8e-
16bb	.	.	.
16ddd	.	.	4.d
16ccc	.	.	.
16bb-	8b-	8g	.
16aa	.	.	.
[2gg	[2cc	[2a	.
.	.	.	8D
.	.	.	8d
.	.	.	8d
=132	=132	=132	=132
4gg]	4cc_	4a_	4d
16ff#	16cc]	16a]	2.r
16gg	16b	16g	.
16aa	16a	16f#	.
16bb	16g	16e	.
4ccc	4f#	4d	.
4r	8r	4r	.
.	8d	.	.
=133	=133	=133	=133
1r	4b	4d	4G
.	4b	4d	4G
.	16b	2d	2G
.	16a#	.	.
.	16b	.	.
.	16a#	.	.
.	8b	.	.
.	8b	.	.
=134	=134	=134	=134
1r	4.dd	8r	8r
.	.	8B	8GG
.	.	8b	4.G
.	8b	8d	.
.	4.dd	8r	.
.	.	8B	8GG
.	.	8b	4G
.	8b	8d	.
=135	=135	=135	=135
1r	4a	4e	4C
.	4a	4e	4C
.	16a	2e	2C
.	16g#	.	.
.	16a	.	.
.	16g#	.	.
.	8a	.	.
.	8a	.	.
=136	=136	=136	=136
1r	4.cc]	8r	8r
.	.	8A	8C
.	.	8e	4.c
.	8a	8c	.
.	4.cc	8r	.
.	.	8A	8C
.	.	8a]	4c
.	8a	8f#	.
=137	=137	=137	=137
1r	4g	8r	2B
.	.	4d	.
.	4g#	.	.
.	.	4d	.
.	4a	.	2F#
.	.	4d	.
.	4a#	.	.
.	.	8d	.
=138	=138	=138	=138
2..r	4b	8d	4G
.	.	8g	.
.	16cc	16a	4C
.	16dd	16b	.
.	16ee	16cc	.
.	16cc	16a	.
.	4b	4g	16D
.	.	.	16C#
.	.	.	16D
.	.	.	16C#
.	8a	8f#	8D
8dd	8r	8r	8r
=139	=139	=139	=139
4bb	4dd	4g	8r
.	.	.	8GG
4bb	4dd	4g	8r
.	.	.	8GG
16bb	2dd	16g	8r
16aa#	.	16f#	.
16bb	.	16g	8GG
16aa#	.	16f#	.
8bb	.	8g	8GG
8bb	.	8g	8r
=140	=140	=140	=140
4.ddd	8r	4.b	8r
.	8dd	.	8GG
.	4.gg	.	4.G
8bb	.	8g	.
4.ddd	.	4.b	.
.	8dd	.	8GG
.	4gg	.	4G
8bb	.	8g	.
=141	=141	=141	=141
4aa	4dd	4f#	8r
.	.	.	8C
4aa	4dd	4f#	8r
.	.	.	8C
16aa	2dd	16f#	8r
16gg#	.	16e#	.
16aa	.	16f#	8C
16gg#	.	16e#	.
8aa	.	8f#	8C
8aa	.	8f#	8r
=142	=142	=142	=142
4.ccc	8r	4.a	8r
.	8d	.	8CC
.	4.dd	.	4.C
8aa	.	8f#	.
4.ccc	.	4.a	.
.	8d	.	8C
.	[4dd	.	4c
8aa	.	8f#	.
=143	=143	=143	=143
4gg	4dd]	4g	2B
4gg#	4ff	4dd	.
4aa	4ee	4cc	4c
4bb-	[4gg	4ee	4c#
=144	=144	=144	=144
4bb	4gg]	4dd	2d
8ccc	8aa	4cc	.
16bb	16gg	.	.
16aa	16ff#	.	.
16gg	4gg	4b	4g
16ff#	.	.	.
16ee	.	.	.
16dd	.	.	.
16cc	4r	4r	4r
16b	.	.	.
16a	.	.	.
16g	.	.	.
=145	=145	=145	=145
4G	4g	2B	4E
4f	4g#	.	4D
4e	4a	4c	4C
4ee	4b-	[4g	4C#
=146	=146	=146	=146
4d	4b	4g]	2D
4ff#	8cc	8a	.
.	16b	8c	.
.	16a	.	.
8gg	8g	8B	8GG
8r	4.r	4.r	4.r
16gg	.	.	.
16ff#	.	.	.
16ee	.	.	.
16dd	.	.	.
=147	=147	=147	=147
16cc#	8a	8d	8F#
16dd	.	.	.
16cc#	8a	8d	8F#
16dd	.	.	.
16cc#	8a	8d	8F#
16dd	.	.	.
16ee	8r	8r	8r
16cc	.	.	.
16a#	8g	8d	8G
16b	.	.	.
16a#	8g	8d	8G
16b	.	.	.
16a#	8g	8d	8G
16b	.	.	.
16dd	8r	8r	8r
16b	.	.	.
=148	=148	=148	=148
16g#	8r	8r	8C
16a	.	.	.
16g#	8e	8c	8r
16a	.	.	.
16g#	8r	8r	8AA
16a	.	.	.
16cc	8e	8c	8r
16a	.	.	.
16g	4A	4d	4D
16f#	.	.	.
16e	.	.	.
16d	.	.	.
16gg	16g	4r	4r
16ff#	16f#	.	.
16ee	16e	.	.
16dd	16d	.	.
=149	=149	=149	=149
16cc#	16c#	8A 8D	8FF#
16dd	16d	.	.
16cc#	16c#	8A 8D	8FF#
16dd	16d	.	.
16cc#	16c#	8A 8D	8FF#
16dd	16d	.	.
16ee	16e	8r	8r
16cc	16c	.	.
16a#	16A#	8G 8D	8GG
16b	16B	.	.
16a#	16A#	8G 8D	8GG
16b	16B	.	.
16a#	16A#	8G 8D	8GG
16b	16B	.	.
16dd	16d	8r	8r
16b	16B	.	.
=150	=150	=150	=150
16b	16B	8r	8C
16a	16A	.	.
16g#	16G#	8g 8G	8r
16a	16A	.	.
16cc	16c	8r	8D
16b	16B	.	.
16a#	16A#	8g 8G	8r
16b	16B	.	.
16dd	16d	8r	8E
16cc	16c	.	.
16b	16B	8g 8G	4.r
16cc	16c	.	.
16b	16B	8g 8G	.
16cc	16c	.	.
16ee	16e	8g 8G	.
16cc	16c	.	.
=151	=151	=151	=151
16cc	16c	8r	8D
16b	16B	.	.
16a#	16A#	8g 8G	8r
16b	16B	.	.
16dd	16d	8r	8E
16cc	16c	.	.
16b	16B	8g 8G	8r
16cc	16c	.	.
16ee	16e	8r	8F
16dd	16d	.	.
16cc#	16c#	8g 8G	4.r
16dd	16d	.	.
16cc#	16c#	8g 8G	.
16dd	16d	.	.
16ff	16f	8g 8G	.
16dd	16d	.	.
=152	=152	=152	=152
16dd	16d	8r	8E
16cc	16c	.	.
16b	16B	8g 8G	8r
16cc	16c	.	.
16ee	16e	8r	8BB
16dd	16d	.	.
16cc#	16c#	8g 8G	8r
16dd	16d	.	.
16ff	16f	8r	8C
16ee	16e	.	.
16dd#	16d#	8g 8G	4.r
16ee	16e	.	.
16dd#	16d#	8g 8G	.
16ee	16e	.	.
16gg	16g	8g 8G	.
16ee	16e	.	.
=153	=153	=153	=153
16gg	16g	8r	8A
16ff#	16f#	.	.
16ee#	16e#	8d 8c	2..r
16ff#	16f#	.	.
16ee#	16e#	8d 8c	.
16ff#	16f#	.	.
16aa	16cc	8d 8A	.
16ff#	16a	.	.
2gg	2b	16G	.
.	.	16A	.
.	.	16B	.
.	.	16c	.
.	.	16d	.
.	.	16e	.
.	.	16f#	.
.	.	16g	.
=154	=154	=154	=154
2bb	[2gg 2dd	16f	1r
.	.	16e	.
.	.	16d	.
.	.	16c	.
.	.	16B	.
.	.	16A	.
.	.	16G	.
.	.	16F	.
2ccc	2gg 2ee]	16E	.
.	.	16F	.
.	.	16G	.
.	.	16A	.
.	.	16B	.
.	.	16c	.
.	.	16d	.
.	.	16e	.
=155	=155	=155	=155
8.bb	8.gg	8d	2r
.	.	8d	.
16ddd	16bb	.	.
8ccc	8aa	8d	.
16bb	16gg	8d	.
16aa	16ff#	.	.
2gg	2gg	2d 2B	16G
.	.	.	16A
.	.	.	16B
.	.	.	16c
.	.	.	16d
.	.	.	16e
.	.	.	16f#
.	.	.	16g
=156	=156	=156	=156
2b	2d 2G	2r	16f
.	.	.	16e
.	.	.	16d
.	.	.	16c
.	.	.	16B
.	.	.	16A
.	.	.	16G
.	.	.	16F
2cc	2e	16G	16E
.	.	16A	16F
.	.	16B	16G
.	.	16c	16A
.	.	16d	16B
.	.	16e	16c
.	.	16f	16d
.	.	16g	16e
=157	=157	=157	=157
2dd	[2b 2g	16f	16d
.	.	16e	16c
.	.	16d	16B
.	.	16c	16A
.	.	16B	16G
.	.	16A	16F
.	.	16G	16E
.	.	16F	16D
2ee	2cc 2g]	16E	16C
.	.	16F	16D
.	.	16G	16E
.	.	16A	16F
.	.	16B	16G
.	.	16c	16A
.	.	16d	16B
.	.	16e	16c
=158	=158	=158	=158
16ff	16dd	8g	8B
16ee	16cc	.	.
16dd	16b	4.r	4.r
16cc	16a	.	.
16b	16g	.	.
16a	16f	.	.
16g	16e	.	.
16f	16d	.	.
8e	8c	16e	16c
.	.	16d	16B
4.r	4.r	16c	16A
.	.	16B	16G
.	.	16A	16F
.	.	16G	16E
.	.	16F	16D
.	.	16E	16C
=159	=159	=159	=159
16f#	16c	16A	2D
16g	16d	16B	.
16a	16e	16c	.
16b	16f#	16d	.
16cc	16g	16e	.
16dd	16a	16f#	.
16ee	16b	16g	.
16ff#	16cc	16a	.
8gg	8b	8g	16E
.	.	.	16F#
4.r	4.r	4.r	16G
.	.	.	16A
.	.	.	16B
.	.	.	16c#
.	.	.	16d#
.	.	.	16e
=160	=160	=160	=160
16cc#	16g	16e	2A
16dd	16a	16f#	.
16ee	16b	16g	.
16ff#	16cc#	16a	.
16gg	16dd	16b	.
16aa	16ee	16cc#	.
16bb	16ff#	16dd	.
16ccc#	16gg	16ee	.
8ddd	8ff#	8dd	8D
8r	8r	8r	8r
8ccc	8aa	8dd	8F#
8r	8r	8r	8r
=161	=161	=161	=161
8bb	8gg	8dd	8G
8r	8r	8r	8r
8aa	8ee	8cc	8c
8r	8r	8r	8r
8gg	8dd	8b	8d
8r	8r	8r	8r
8ff#	8cc	8a	8d#
8r	8r	8r	8r
=162	=162	=162	=162
16aa	8b	8g	8e
16gg	.	.	.
8r	8r	8r	8r
16ff#	8cc	8a	8F#
16ee	.	.	.
8r	8r	8r	8r
16cc#	8b	8d	8G
16dd	.	.	.
8r	8r	8r	8r
16dd	8a	8e	8C
16cc	.	.	.
8r	8r	8r	8r
=163	=163	=163	=163
16cc	8g	8d	8D
16b	.	.	.
8r	8r	8r	8r
16b	8f#	8c	8D
16a	.	.	.
8r	8r	8r	8r
8g	8g	8B	8GG
8r	8r	8r	8r
[4cc#	[4B-	[4G	[4E
=164	=164	=164	=164
4cc#]	4B-]	4G]	4E]
4.dd	4.B	4.G	2D
16cc	8B	8G	.
16b	.	.	.
8a	8c	8A	4DD
16g	8c	8A	.
16f#	.	.	.
=165	=165	=165	=165
8g	8B	8G	8GG
8r	8r	8r	8r
2ccc#	2b-	2g	2e
[4ddd	[4b	[4g	[4d
=166	=166	=166	=166
8ddd]	8b]	8g]	4d]
16ccc	8b	8g	.
16bb	.	.	.
8aa	8cc	8a	4D
16gg	8cc	8a	.
16ff#	.	.	.
8gg	8b	8g	4G
8r	8r	8r	.
16a	8c	8D	4r
16cc	.	.	.
16b	8c	8D	.
16a	.	.	.
=167	=167	=167	=167
8g	8B	8G	4r
8r	8r	8r	.
8ff#	16a	8c	8D
.	16cc	.	.
8ff#	16b	8c	8D
.	16a	.	.
8gg	8g	8B	8G
8r	8r	8r	4.r
16a	8c	8D	.
16cc	.	.	.
16b	8c	8D	.
16a	.	.	.
=168	=168	=168	=168
8g	8B	8G	4r
8r	8r	8r	.
8ccc	8ff#	16a	8d
.	.	16cc	.
8ccc	8ff#	16b	8d
.	.	16a	.
8bb	8gg	8g	8e
4.r	4.r	4.r	4.r
=169	=169	=169	=169
8.a	8.g	8.e	8.C
16a	16g	16e	16C
8.a	8.g	8.e	8.C#
16a	16g	16e	16C#
8.b	8.g	8.d	8.D
16b	16g	16d	16D
8.cc	8.g	8.c	8.E
16cc	16g	16c	16E
=170	=170	=170	=170
8b	8g	8d	8D
8r	8r	8r	8r
8.a	8.f#	8d 8c	8D
.	.	8r	8r
32g	32e	.	.
32a	32f#	.	.
4g	4g	4d 4B	4GG
8r	8r	8r	8r
8r	8r	8r	8r
==	==	==	==
*-	*-	*-	*-
!!!RWG1: This file contains only pitch and duration data.
!!!RWG2: Transposing instruments are not transposed.
!!!RWG3: Spines may have incompatible meters.
!!!RWG4: Durations of rests and tied notes may be interpreted.
!!!RWG: Key is interpreted using the Humdrum key tool.
!!!AFT: stage1
!!!END: 1997/04/15
!!format changes:
!!content changes:
!!public access: complete
!!!KEY: 1043894346
!!!EMD: Converted from MuseData to Humdrum Dec 16, 2000, by Andreas Kornstaedt using muse2kern.
